**kern	**text
*clefG2	*
*k[f#c#g#]	*
*M4/4	*
*MM120	*
=1	=1
8f#L	あ
8c#J	ら
8r	.
8f#	つぁ
8r	.
4.f#	つぁ
=2	=2
8g#L	や
8a	り
8a	び
8f#J	だ
8f#L	び
8f#	り
8f#	ん
8f#J	や
=3	=3
8aL	ば
8g#	り
8g#	つ
8eJ	た
8eL	ん
8e	り
8e	ん
8g#J	だ
=4	=4
8g#L	ん
8a	れ
8a	ん
8f#J	ら
8f#	ん
4f#	ろ
8f#	ま
=5	=5
8f#L	ば
8c#J	り
8r	.
8f#	ば
8r	.
4.f#	ば
=6	=6
8g#L	ば
8aJ	り
8r	.
8f#	ば
4f#	り
8f#L	ば
8f#J	り
=7	=7
8aL	り
8cc#	り
8cc#	び
8cc#J	り
8bL	び
8a	り
8a	つ
8g#J	て
=8	=8
8g#L	ん
8a	れ
8a	ん
8f#J	ら
8f#	ん
4f#	ど
8f#	わ
=9	=9
8f#L	ば
8cc#	り
8cc#	ん
8cc#J	ら
8cc#L	ん
8b	て
8b	ん
8aJ	ら
=10	=10
8a	ん
4g#	で
8e	あ
4e	ろ
8eL	わ
8eJ	ら
=11	=11
8g#L	ば
8b	る
8b	ぶ
8bJ	る
8bL	ぶ
8a	る
8a	ぶ
8g#J	る
=12	=12
8g#L	ぶ
8a	れ
8a	い
8f#J	え
2f#	ぶ
=13	=13
8f#L	ば
8cc#J	り
8r	.
8cc#	た
8cc#L	ん
8b	り
8b	ん
8aJ	だ
=14	=14
8aL	ん
8g#	れ
8g#	ん
8eJ	ら
8eL	ん
8e	と
8e	か
8g#J	か
=15	=15
8g#L	か
8b	た
8b	か
8bJ	た
8bL	か
8a	とぅ
8a	く
8g#J	とぅ
=16	=16
8g#L	く
8a	れ
8a	い
8f#J	え
2f#	ぶ
==	==
*-	*-
